X: 34681
T: Road To Dundee, The
R: jig
M: 6/8
K: Aminor
G|E>AA A>GA|B>AG G>AB|c>dc B>AG|A>GE E2D|
E>AA A>GA|B>AG G>AB|c>dc B>AG|A>GE E2D|
E>ee e>dc|B>AG B<dA|B>ee e>dc|B>GB d2A|
B>ee edc|B>AG G>AB|c>dc BAG|A>GE E2||

